packages/ffe-icons/icons/filled/md/format_h5.svg

<svg xmlns="http://www.w3.org/2000/svg" height="24" viewBox="0 -960 960 960" width="24"><path d="M159.987-290.001q-12.756 0-21.371-8.625-8.615-8.624-8.615-21.374v-320q0-12.75 8.628-21.375 8.629-8.624 21.384-8.624 12.756 0 21.371 8.624 8.615 8.625 8.615 21.375v130.001h180.002V-640q0-12.75 8.628-21.375 8.629-8.624 21.384-8.624 12.756 0 21.371 8.624 8.615 8.625 8.615 21.375v320q0 12.75-8.628 21.374-8.629 8.625-21.384 8.625-12.756 0-21.371-8.625-8.615-8.624-8.615-21.374v-130.001H189.999V-320q0 12.75-8.628 21.374-8.629 8.625-21.384 8.625Zm380.012 0q-12.75 0-21.375-8.628-8.625-8.629-8.625-21.384 0-12.756 8.625-21.371 8.625-8.615 21.375-8.615h197.692q5.385 0 8.846-3.462 3.462-3.462 3.462-8.847v-75.384q0-5.385-3.462-8.847-3.461-3.462-8.846-3.462H546.153q-15.365 0-25.76-10.346-10.394-10.346-10.394-25.998v-147.31q0-15.652 10.394-25.998 10.395-10.346 25.76-10.346h233.846q12.749 0 21.374 8.628 8.625 8.629 8.625 21.384 0 12.756-8.625 21.371-8.625 8.615-21.374 8.615H569.998v100.002h167.693q29.826 0 51.067 21.24 21.24 21.24 21.24 51.067v75.384q0 29.827-21.24 51.067-21.241 21.24-51.067 21.24H539.999Z"/></svg>

<svg xmlns="http://www.w3.org/2000/svg" height="24" viewBox="0 -960 960 960" width="24"><path d="M159.99-290q-12.76 0-21.37-8.63Q130-307.25 130-320v-320q0-12.75 8.63-21.37 8.63-8.63 21.38-8.63 12.76 0 21.37 8.63Q190-652.75 190-640v130h180v-130q0-12.75 8.63-21.37 8.63-8.63 21.38-8.63 12.76 0 21.37 8.63Q430-652.75 430-640v320q0 12.75-8.63 21.37-8.63 8.63-21.38 8.63-12.76 0-21.37-8.63Q370-307.25 370-320v-130H190v130q0 12.75-8.63 21.37-8.63 8.63-21.38 8.63ZM540-290q-12.75 0-21.38-8.63-8.62-8.63-8.62-21.38 0-12.76 8.62-21.37Q527.25-350 540-350h197.69q5.39 0 8.85-3.46t3.46-8.85v-75.38q0-5.39-3.46-8.85t-8.85-3.46H546.15q-15.36 0-25.76-10.35Q510-470.69 510-486.34v-147.32q0-15.65 10.39-25.99Q530.79-670 546.15-670H780q12.75 0 21.37 8.63 8.63 8.63 8.63 21.38 0 12.76-8.63 21.37Q792.75-610 780-610H570v100h167.69q29.83 0 51.07 21.24Q810-467.52 810-437.69v75.38q0 29.83-21.24 51.07Q767.52-290 737.69-290H540Z"/></svg>
